gama.ui.shared/icons_svg/light/prefs/prefs.general2.svg

<svg height="25" viewBox="-912.5 -3582.675 25 25" width="25" xmlns="http://www.w3.org/2000/svg"><g fill="none"><path d="m-903.6-3582.1755h7.2c2.4 0 3.6 0 5.04.48 1.2.48 2.4 1.68 2.88 2.88.48 1.44.48 2.64.48 5.04v7.2c0 2.4 0 3.6-.48 5.04-.48 1.2-1.68 2.4-2.88 2.88-1.44.48-2.64.48-5.04.48h-7.2c-2.4 0-3.6 0-5.04-.48-1.2-.48-2.4-1.68-2.88-2.88-.48-1.44-.48-2.64-.48-5.04v-7.2c0-2.4 0-3.6.48-5.04.48-1.2 1.68-2.4 2.88-2.88 1.44-.48 2.64-.48 5.04-.48m0 0" fill="#518737"/><path d="m-903.6-3582.1755h7.2c2.4 0 3.6 0 5.04.48 1.2.48 2.4 1.68 2.88 2.88.48 1.44.48 2.64.48 5.04v7.2c0 2.4 0 3.6-.48 5.04-.48 1.2-1.68 2.4-2.88 2.88-1.44.48-2.64.48-5.04.48h-7.2c-2.4 0-3.6 0-5.04-.48-1.2-.48-2.4-1.68-2.88-2.88-.48-1.44-.48-2.64-.48-5.04v-7.2c0-2.4 0-3.6.48-5.04.48-1.2 1.68-2.4 2.88-2.88 1.44-.48 2.64-.48 5.04-.48m0 0" stroke="#528637" stroke-linecap="round" stroke-linejoin="round" stroke-width=".25"/><path d="m-899.1556-3565.409c-.2044.988-1.1022 1.7335-2.1777 1.7335-1.0756 0-1.9734-.7455-2.1778-1.7335h-4.0445c-.2489 0-.4444-.1905-.4444-.433 0-.243.1955-.4335.4444-.4335h4.0445c.2044-.988 1.1022-1.7335 2.1778-1.7335 1.0755 0 1.9733.7455 2.1777 1.7335h6.7111c.2489 0 .4445.1905.4445.4335 0 .2425-.1956.433-.4445.433zm5.3334-4.333c-.2045.988-1.1023 1.733-2.1778 1.733-1.0756 0-1.9733-.745-2.1778-1.733h-9.3778c-.2489 0-.4444-.191-.4444-.4335s.1955-.4335.4444-.4335h9.3778c.2045-.988 1.1022-1.733 2.1778-1.733 1.0755 0 1.9733.745 2.1778 1.733h1.3777c.2489 0 .4445.191.4445.4335s-.1956.4335-.4445.4335zm-8-4.3335c-.2045.988-1.1023 1.7335-2.1778 1.7335-1.0756 0-1.9733-.7455-2.1778-1.7335h-1.3778c-.2489 0-.4444-.1905-.4444-.4335 0-.2425.1955-.433.4444-.433h1.3778c.2045-.988 1.1022-1.7335 2.1778-1.7335 1.0755 0 1.9733.7455 2.1778 1.7335h9.3777c.2489 0 .4445.1905.4445.433 0 .243-.1956.4335-.4445.4335zm-2.1778.8665c.7378 0 1.3333-.5805 1.3333-1.3 0-.719-.5955-1.3-1.3333-1.3s-1.3333.581-1.3333 1.3c0 .7195.5955 1.3 1.3333 1.3zm8 4.3335c.7378 0 1.3333-.5805 1.3333-1.3s-.5955-1.3-1.3333-1.3-1.3333.5805-1.3333 1.3.5955 1.3 1.3333 1.3zm-5.3333 4.3335c.7377 0 1.3333-.581 1.3333-1.3 0-.7195-.5956-1.3-1.3333-1.3-.7378 0-1.3334.5805-1.3334 1.3 0 .719.5956 1.3 1.3334 1.3z" fill="#fff"/></g></svg>

<?xml version="1.0" encoding="UTF-8" standalone="no"?>
<!DOCTYPE svg PUBLIC "-//W3C//DTD SVG 1.1//EN" "http://www.w3.org/Graphics/SVG/1.1/DTD/svg11.dtd">
<svg version="1.1" xmlns="http://www.w3.org/2000/svg" xmlns:xl="http://www.w3.org/1999/xlink" xmlns:dc="http://purl.org/dc/elements/1.1/" viewBox="-912.5 -3582.6755 25 25" width="25" height="25">
  <defs/>
  <g id="SOURCES" stroke-dasharray="none" fill="none" stroke="none" fill-opacity="1" stroke-opacity="1">
    <title>SOURCES</title>
    <g id="SOURCES_Calque_2">
      <title>Calque 2</title>
      <g id="Graphic_9611">
        <path d="M -903.6 -3582.1755 L -896.4 -3582.1755 C -894 -3582.1755 -892.8 -3582.1755 -891.36 -3581.6955 C -890.16 -3581.2155 -888.96 -3580.0155 -888.48 -3578.8155 C -888 -3577.3755 -888 -3576.1755 -888 -3573.7755 L -888 -3566.5755 C -888 -3564.1755 -888 -3562.9755 -888.48 -3561.5355 C -888.96 -3560.3355 -890.16 -3559.1355 -891.36 -3558.6555 C -892.8 -3558.1755 -894 -3558.1755 -896.4 -3558.1755 L -903.6 -3558.1755 C -906 -3558.1755 -907.2 -3558.1755 -908.64 -3558.6555 C -909.84 -3559.1355 -911.04 -3560.3355 -911.52 -3561.5355 C -912 -3562.9755 -912 -3564.1755 -912 -3566.5755 L -912 -3573.7755 C -912 -3576.1755 -912 -3577.3755 -911.52 -3578.8155 C -911.04 -3580.0155 -909.84 -3581.2155 -908.64 -3581.6955 C -907.2 -3582.1755 -906 -3582.1755 -903.6 -3582.1755 M -903.6 -3582.1755" fill="#518737"/>
        <path d="M -903.6 -3582.1755 L -896.4 -3582.1755 C -894 -3582.1755 -892.8 -3582.1755 -891.36 -3581.6955 C -890.16 -3581.2155 -888.96 -3580.0155 -888.48 -3578.8155 C -888 -3577.3755 -888 -3576.1755 -888 -3573.7755 L -888 -3566.5755 C -888 -3564.1755 -888 -3562.9755 -888.48 -3561.5355 C -888.96 -3560.3355 -890.16 -3559.1355 -891.36 -3558.6555 C -892.8 -3558.1755 -894 -3558.1755 -896.4 -3558.1755 L -903.6 -3558.1755 C -906 -3558.1755 -907.2 -3558.1755 -908.64 -3558.6555 C -909.84 -3559.1355 -911.04 -3560.3355 -911.52 -3561.5355 C -912 -3562.9755 -912 -3564.1755 -912 -3566.5755 L -912 -3573.7755 C -912 -3576.1755 -912 -3577.3755 -911.52 -3578.8155 C -911.04 -3580.0155 -909.84 -3581.2155 -908.64 -3581.6955 C -907.2 -3582.1755 -906 -3582.1755 -903.6 -3582.1755 M -903.6 -3582.1755" stroke="#528637" stroke-linecap="round" stroke-linejoin="round" stroke-width=".25"/>
      </g>
      <g id="Group_9622">
        <title>slider-circle-h</title>
        <g id="Graphic_9623">
          <path d="M -899.1556 -3565.409 C -899.36 -3564.421 -900.2578 -3563.6755 -901.3333 -3563.6755 C -902.4089 -3563.6755 -903.3067 -3564.421 -903.5111 -3565.409 L -907.5556 -3565.409 C -907.8045 -3565.409 -908 -3565.5995 -908 -3565.842 C -908 -3566.085 -907.8045 -3566.2755 -907.5556 -3566.2755 L -903.5111 -3566.2755 C -903.3067 -3567.2635 -902.4089 -3568.009 -901.3333 -3568.009 C -900.2578 -3568.009 -899.36 -3567.2635 -899.1556 -3566.2755 L -892.4445 -3566.2755 C -892.1956 -3566.2755 -892 -3566.085 -892 -3565.842 C -892 -3565.5995 -892.1956 -3565.409 -892.4445 -3565.409 L -899.1556 -3565.409 Z M -893.8222 -3569.742 C -894.0267 -3568.754 -894.9245 -3568.009 -896 -3568.009 C -897.0756 -3568.009 -897.9733 -3568.754 -898.1778 -3569.742 L -907.5556 -3569.742 C -907.8045 -3569.742 -908 -3569.933 -908 -3570.1755 C -908 -3570.418 -907.8045 -3570.609 -907.5556 -3570.609 L -898.1778 -3570.609 C -897.9733 -3571.597 -897.0756 -3572.342 -896 -3572.342 C -894.9245 -3572.342 -894.0267 -3571.597 -893.8222 -3570.609 L -892.4445 -3570.609 C -892.1956 -3570.609 -892 -3570.418 -892 -3570.1755 C -892 -3569.933 -892.1956 -3569.742 -892.4445 -3569.742 Z M -901.8222 -3574.0755 C -902.0267 -3573.0875 -902.9245 -3572.342 -904 -3572.342 C -905.0756 -3572.342 -905.9733 -3573.0875 -906.1778 -3574.0755 L -907.5556 -3574.0755 C -907.8045 -3574.0755 -908 -3574.266 -908 -3574.509 C -908 -3574.7515 -907.8045 -3574.942 -907.5556 -3574.942 L -906.1778 -3574.942 C -905.9733 -3575.93 -905.0756 -3576.6755 -904 -3576.6755 C -902.9245 -3576.6755 -902.0267 -3575.93 -901.8222 -3574.942 L -892.4445 -3574.942 C -892.1956 -3574.942 -892 -3574.7515 -892 -3574.509 C -892 -3574.266 -892.1956 -3574.0755 -892.4445 -3574.0755 Z M -904 -3573.209 C -903.2622 -3573.209 -902.6667 -3573.7895 -902.6667 -3574.509 C -902.6667 -3575.228 -903.2622 -3575.809 -904 -3575.809 C -904.7378 -3575.809 -905.3333 -3575.228 -905.3333 -3574.509 C -905.3333 -3573.7895 -904.7378 -3573.209 -904 -3573.209 Z M -896 -3568.8755 C -895.2622 -3568.8755 -894.6667 -3569.456 -894.6667 -3570.1755 C -894.6667 -3570.895 -895.2622 -3571.4755 -896 -3571.4755 C -896.7378 -3571.4755 -897.3333 -3570.895 -897.3333 -3570.1755 C -897.3333 -3569.456 -896.7378 -3568.8755 -896 -3568.8755 Z M -901.3333 -3564.542 C -900.5956 -3564.542 -900 -3565.123 -900 -3565.842 C -900 -3566.5615 -900.5956 -3567.142 -901.3333 -3567.142 C -902.0711 -3567.142 -902.6667 -3566.5615 -902.6667 -3565.842 C -902.6667 -3565.123 -902.0711 -3564.542 -901.3333 -3564.542 Z" fill="white"/>
        </g>
      </g>
    </g>
  </g>
</svg>
